X:189
T:Rip the Calico
Z:Jack Campin, http://www.campin.me.uk/
F:Jack Campin's Nine-Note Tunebook
% last edit 03-02-2013
M:C|
L:1/8
Q:1/2=100
N:normally in D or G
K:F
E|F3 E FGAF|GF (3DEF GBAG|F3 E FGAF|GAFD C3 :|
D|FDD2 BGAF|GF (3DEF GBAG|FDD2 BGAF|GAFD C3 :|
G|AccA BGAF|GF (3DEF GBAG|AccA BGAF|GAFD C3
G|AccA BGAF|GF (3DEF GBAG|AccA dAcA|G3 A BGA|]

